icons-rebrand/svg/audio-call-bold.svg

<svg width="32" height="32" viewBox="0 0 32 32" fill="none" xmlns="http://www.w3.org/2000/svg">
<path d="M27.997 14C27.7319 13.9997 27.4777 13.8943 27.2902 13.7068C27.1027 13.5193 26.9973 13.2651 26.997 13C26.9711 10.9858 26.1758 9.05769 24.774 7.611C24.0391 6.80683 23.1481 6.16064 22.1555 5.71176C21.1628 5.26289 20.0892 5.02072 19 5C18.7348 5 18.4804 4.89464 18.2929 4.70711C18.1054 4.51957 18 4.26522 18 4C18 3.73478 18.1054 3.48043 18.2929 3.29289C18.4804 3.10536 18.7348 3 19 3C20.3624 3.02085 21.7062 3.31897 22.9496 3.87618C24.1929 4.43339 25.3098 5.23802 26.232 6.241C27.9828 8.05837 28.972 10.4766 28.997 13C28.9965 13.2651 28.8909 13.5191 28.7035 13.7065C28.5161 13.8939 28.2621 13.9995 27.997 14Z" fill="#0F0F0F"/>
<path d="M24 14.993C23.7348 14.993 23.4804 14.8876 23.2929 14.7001C23.1053 14.5126 23 14.2582 23 13.993C23.0521 13.3288 22.9667 12.661 22.7492 12.0313C22.5318 11.4016 22.1868 10.8235 21.736 10.333C20.7225 9.42514 19.3956 8.9471 18.036 9H18C17.8687 9.00026 17.7386 8.97466 17.6171 8.92465C17.4957 8.87463 17.3853 8.80119 17.2923 8.70852C17.1992 8.61585 17.1254 8.50576 17.0749 8.38453C17.0244 8.26331 16.9982 8.13332 16.998 8.002C16.9977 7.87068 17.0233 7.74059 17.0733 7.61917C17.1233 7.49774 17.1968 7.38735 17.2895 7.29431C17.3821 7.20126 17.4922 7.12738 17.6134 7.07689C17.7347 7.02639 17.8647 7.00026 17.996 7H18.037C19.9199 6.93377 21.7522 7.61706 23.132 8.9C23.78 9.57263 24.2808 10.3729 24.6024 11.2498C24.924 12.1266 25.0594 13.0609 25 13.993C25.0002 14.1244 24.9746 14.2546 24.9244 14.376C24.8742 14.4974 24.8006 14.6078 24.7077 14.7007C24.6148 14.7936 24.5044 14.8673 24.383 14.9174C24.2615 14.9676 24.1314 14.9933 24 14.993ZM24.212 19.515C23.8851 19.1888 23.4971 18.9302 23.0703 18.754C22.6434 18.5777 22.186 18.4873 21.7242 18.4879C21.2624 18.4884 20.8053 18.58 20.3788 18.7572C19.9524 18.9345 19.5651 19.194 19.239 19.521C19.239 19.521 18.083 20.701 17.568 21.22C15.7861 21.1466 14.0972 20.4053 12.8369 19.1435C11.5766 17.8818 10.8373 16.1919 10.766 14.41C11.286 13.894 12.463 12.736 12.469 12.73C13.1278 12.0702 13.4979 11.1759 13.4979 10.2435C13.4979 9.31109 13.1278 8.41679 12.469 7.757L9.71298 4.999C9.04184 4.35766 8.14928 3.99976 7.22098 3.99976C6.29268 3.99976 5.40011 4.35766 4.72898 4.999L3.25798 6.473C1.24998 8.483 0.761979 15.503 8.61798 23.37C13.618 28.377 18.276 30 21.52 30C22.956 30.1 24.377 29.65 25.494 28.74L26.966 27.265C27.6273 26.6031 27.9988 25.7057 27.9988 24.77C27.9988 23.8343 27.6273 22.9369 26.966 22.275L24.212 19.515ZM25.552 25.848L24.079 27.286C22.799 28.563 16.943 28.836 10.034 21.916C3.12298 14.996 3.39398 9.17 4.67298 7.89L6.14498 6.447C6.28627 6.30532 6.45413 6.1929 6.63894 6.1162C6.82375 6.0395 7.02188 6.00002 7.22198 6.00002C7.42207 6.00002 7.6202 6.0395 7.80501 6.1162C7.98983 6.1929 8.15769 6.30532 8.29898 6.447L11.054 9.173C11.3365 9.45584 11.4957 9.83897 11.4969 10.2388C11.498 10.6386 11.3409 11.0226 11.06 11.307C11.06 11.307 9.55398 12.789 9.18898 13.155C7.88498 14.465 9.65698 18.791 11.424 20.561C12.5853 21.6921 14.0156 22.5087 15.58 22.934C16.491 23.184 18.123 23.497 18.821 22.799C19.185 22.435 20.661 20.933 20.661 20.932C20.9446 20.6494 21.3286 20.4907 21.729 20.4907C22.1293 20.4907 22.5134 20.6494 22.797 20.932L25.551 23.692C25.8365 23.9781 25.9969 24.3658 25.9969 24.77C25.9969 25.1742 25.8365 25.5619 25.551 25.848H25.552Z" fill="#0F0F0F"/>
</svg>

<svg width="32" height="32" viewBox="0 0 32 32" fill="none" xmlns="http://www.w3.org/2000/svg"><path d="M27.997 14a1.001 1.001 0 0 1-1-1 7.89 7.89 0 0 0-2.223-5.389A8.029 8.029 0 0 0 19 5a1 1 0 1 1 0-2 10.033 10.033 0 0 1 7.232 3.241A9.883 9.883 0 0 1 28.997 13a1.002 1.002 0 0 1-1 1z" fill="#0F0F0F"/><path d="M24 14.993a1 1 0 0 1-1-1 4.848 4.848 0 0 0-1.264-3.66A5.24 5.24 0 0 0 18.036 9H18a1 1 0 1 1-.004-2h.041a7.115 7.115 0 0 1 5.095 1.9A6.724 6.724 0 0 1 25 13.993a.998.998 0 0 1-1 1zM24.212 19.515a3.516 3.516 0 0 0-4.973.006s-1.156 1.18-1.671 1.699a7.1 7.1 0 0 1-6.802-6.81c.52-.516 1.697-1.674 1.703-1.68a3.519 3.519 0 0 0 0-4.973L9.713 4.999a3.607 3.607 0 0 0-4.984 0L3.258 6.473C1.25 8.483.762 15.503 8.618 23.37c5 5.007 9.658 6.63 12.902 6.63 1.436.1 2.857-.35 3.974-1.26l1.472-1.475a3.53 3.53 0 0 0 0-4.99l-2.754-2.76zm1.34 6.333l-1.473 1.438c-1.28 1.277-7.136 1.55-14.045-5.37C3.123 14.996 3.394 9.17 4.673 7.89l1.472-1.443a1.521 1.521 0 0 1 2.154 0l2.755 2.726a1.514 1.514 0 0 1 .006 2.134s-1.506 1.482-1.871 1.848c-1.304 1.31.468 5.636 2.235 7.406a9.546 9.546 0 0 0 4.156 2.373c.911.25 2.543.563 3.241-.135.364-.364 1.84-1.866 1.84-1.867a1.513 1.513 0 0 1 2.136 0l2.754 2.76a1.526 1.526 0 0 1 0 2.156z" fill="#0F0F0F"/></svg>
